svg/fluentui-system-icons/ic_fluent_image_multiple_16_regular.svg

<svg width="16" height="16" viewBox="0 0 16 16" fill="none" xmlns="http://www.w3.org/2000/svg">
<path d="M10 5C10 5.55228 9.55228 6 9 6C8.44772 6 8 5.55228 8 5C8 4.44772 8.44772 4 9 4C9.55228 4 10 4.44772 10 5ZM4.5 2C3.11929 2 2 3.11929 2 4.5V9.5C2 10.8807 3.11929 12 4.5 12H9.5C10.8807 12 12 10.8807 12 9.5V4.5C12 3.11929 10.8807 2 9.5 2H4.5ZM3 4.5C3 3.67157 3.67157 3 4.5 3H9.5C10.3284 3 11 3.67157 11 4.5V9.5C11 9.73157 10.9475 9.95088 10.8538 10.1467L8.20919 7.50207C7.54139 6.83427 6.45868 6.83427 5.79089 7.50207L3.1462 10.1467C3.05248 9.95092 3 9.73159 3 9.5V4.5ZM3.85333 10.8538L6.49799 8.20917C6.77526 7.9319 7.22481 7.9319 7.50208 8.20918L10.1467 10.8538C9.9509 10.9475 9.73158 11 9.5 11H4.5C4.26844 11 4.04914 10.9475 3.85333 10.8538ZM6.99994 14C6.18203 14 5.45586 13.6072 4.99976 13H9.49994C11.4329 13 12.9999 11.433 12.9999 9.5V3.99982C13.6072 4.45592 13.9999 5.18209 13.9999 6V9.5C13.9999 11.9853 11.9852 14 9.49994 14H6.99994Z" fill="#212121"/>
</svg>

<svg xmlns="http://www.w3.org/2000/svg" width="16" height="16"><path d="M10 5a1 1 0 1 1-2 0 1 1 0 0 1 2 0ZM4.5 2A2.5 2.5 0 0 0 2 4.5v5A2.5 2.5 0 0 0 4.5 12h5A2.5 2.5 0 0 0 12 9.5v-5A2.5 2.5 0 0 0 9.5 2h-5ZM3 4.5A1.5 1.5 0 0 1 4.5 3h5A1.5 1.5 0 0 1 11 4.5v5c0 .232-.053.45-.146.647L8.209 7.502a1.71 1.71 0 0 0-2.418 0l-2.645 2.645A1.494 1.494 0 0 1 3 9.5v-5Zm.853 6.354 2.645-2.645a.71.71 0 0 1 1.004 0l2.645 2.645A1.494 1.494 0 0 1 9.5 11h-5c-.232 0-.45-.053-.647-.146ZM7 14a2.496 2.496 0 0 1-2-1h4.5A3.5 3.5 0 0 0 13 9.5V4c.607.456 1 1.182 1 2v3.5A4.5 4.5 0 0 1 9.5 14H7Z"/></svg>
